X:9
T:Arkansas Traveler
M:4/4
L:1/4
S:Sarah Comer
Z:abc-transcription Josh Larios <hades@elsewhere.org>, 2014.01.13
K:D
|: A, | "D"D/F/E/D/ "G"B,B, | "D"A,A,D>D | "A"EE"D"FF | "Em"E/F/E/D/"A"B,A, |
"D"D/F/E/D/ "G"B,B, | "D"A,A,DA | d/c/d/A/ "G"B/d/A/G/ | "A"F/D/E/F/ "D"D :|
(f/g/) | "D"af"G"ge | "D"fd"A"eA | "D"dd"A"ee | "D"ff"A"ef/g/ |
"D"af"G"ge | "D"fd"A"eA | "D"d/c/d/A/ "G"B/d/A/G/ | "A"F/D/E/F/ "D"D :|

